X:429
T:Lady Lucy Leslie Melville
R:Reel
C:Niel Gow
B:The Athole Collection
M:C|
L:1/8
K:F
a|~f>dcA F/F/F F>A|G/G/G g>f dfga|~fdcA cd/e/ ~f>c|dfcA F/F/F ~F:|
A|~F2 fg fdcA|G2 ga gfdf|~c2 fg fdcA|BGcA F/F/F ~FA|~F2 fg fdcA|
G2 ga g>fdg|fadf cfAf|cAfA F/F/F ~F||

